Newaita/actions/16/distribute-horizontal-left.svg

<svg height="16" viewBox="0 0 16 16" width="16" xmlns="http://www.w3.org/2000/svg"><g fill="#424242"><path d="m6.945312 1.449219v2.644531l1.65625-1.324219zm0 0"/><path d="m1.984375 4.753906c-.367187 0-.660156.296875-.660156.664063v3.308593c0 .363282.292969.660157.660156.660157h3.308594c.367187 0 .660156-.296875.660156-.660157v-3.308593c0-.367188-.292969-.664063-.660156-.664063zm.992187 1.324219h1.324219c.183594 0 .328125.148437.328125.332031v1.324219c0 .179687-.144531.328125-.328125.328125h-1.324219c-.183593 0-.332031-.148438-.332031-.328125v-1.324219c0-.183594.148438-.332031.332031-.332031zm0 0"/><path d="m1.652344 1.449219h.664062c.179688 0 .328125.148437.328125.328125v12.570312c0 .183594-.148437.332032-.328125.332032h-.664062c-.179688 0-.328125-.148438-.328125-.332032v-12.570312c0-.179688.148437-.328125.328125-.328125zm0 0"/><path d="m10.585938 4.753906c-.367188 0-.664063.296875-.664063.664063v5.621093c0 .367188.296875.664063.664063.664063h3.304687c.367187 0 .664063-.296875.664063-.664063v-5.621093c0-.367188-.296876-.664063-.664063-.664063zm.992187 1.324219h1.320313c.183593 0 .332031.148437.332031.332031v3.636719c0 .183594-.148438.332031-.332031.332031h-1.320313c-.183594 0-.332031-.148437-.332031-.332031v-3.636719c0-.183594.148437-.332031.332031-.332031zm0 0"/><path d="m10.253906 1.449219h.660156c.183594 0 .332032.148437.332032.328125v12.570312c0 .183594-.148438.332032-.332032.332032h-.660156c-.183594 0-.332031-.148438-.332031-.332032v-12.570312c0-.179688.148437-.328125.332031-.328125zm0 0"/><path d="m5.621094 1.449219v2.644531l-1.652344-1.324219zm0 0"/></g></svg>

<?xml version="1.0" encoding="UTF-8"?>
<svg xmlns="http://www.w3.org/2000/svg" xmlns:xlink="http://www.w3.org/1999/xlink" width="16px" height="16px" viewBox="0 0 16 16" version="1.1">
<g id="surface1">
<path style=" stroke:none;fill-rule:nonzero;fill:rgb(25.882354%,25.882354%,25.882354%);fill-opacity:1;" d="M 6.945312 1.449219 L 6.945312 4.09375 L 8.601562 2.769531 Z M 6.945312 1.449219 "/>
<path style=" stroke:none;fill-rule:nonzero;fill:rgb(25.882354%,25.882354%,25.882354%);fill-opacity:1;" d="M 1.984375 4.753906 C 1.617188 4.753906 1.324219 5.050781 1.324219 5.417969 L 1.324219 8.726562 C 1.324219 9.089844 1.617188 9.386719 1.984375 9.386719 L 5.292969 9.386719 C 5.660156 9.386719 5.953125 9.089844 5.953125 8.726562 L 5.953125 5.417969 C 5.953125 5.050781 5.660156 4.753906 5.292969 4.753906 Z M 2.976562 6.078125 L 4.300781 6.078125 C 4.484375 6.078125 4.628906 6.226562 4.628906 6.410156 L 4.628906 7.734375 C 4.628906 7.914062 4.484375 8.0625 4.300781 8.0625 L 2.976562 8.0625 C 2.792969 8.0625 2.644531 7.914062 2.644531 7.734375 L 2.644531 6.410156 C 2.644531 6.226562 2.792969 6.078125 2.976562 6.078125 Z M 2.976562 6.078125 "/>
<path style=" stroke:none;fill-rule:nonzero;fill:rgb(25.882354%,25.882354%,25.882354%);fill-opacity:1;" d="M 1.652344 1.449219 L 2.316406 1.449219 C 2.496094 1.449219 2.644531 1.597656 2.644531 1.777344 L 2.644531 14.347656 C 2.644531 14.53125 2.496094 14.679688 2.316406 14.679688 L 1.652344 14.679688 C 1.472656 14.679688 1.324219 14.53125 1.324219 14.347656 L 1.324219 1.777344 C 1.324219 1.597656 1.472656 1.449219 1.652344 1.449219 Z M 1.652344 1.449219 "/>
<path style=" stroke:none;fill-rule:nonzero;fill:rgb(25.882354%,25.882354%,25.882354%);fill-opacity:1;" d="M 10.585938 4.753906 C 10.21875 4.753906 9.921875 5.050781 9.921875 5.417969 L 9.921875 11.039062 C 9.921875 11.40625 10.21875 11.703125 10.585938 11.703125 L 13.890625 11.703125 C 14.257812 11.703125 14.554688 11.40625 14.554688 11.039062 L 14.554688 5.417969 C 14.554688 5.050781 14.257812 4.753906 13.890625 4.753906 Z M 11.578125 6.078125 L 12.898438 6.078125 C 13.082031 6.078125 13.230469 6.226562 13.230469 6.410156 L 13.230469 10.046875 C 13.230469 10.230469 13.082031 10.378906 12.898438 10.378906 L 11.578125 10.378906 C 11.394531 10.378906 11.246094 10.230469 11.246094 10.046875 L 11.246094 6.410156 C 11.246094 6.226562 11.394531 6.078125 11.578125 6.078125 Z M 11.578125 6.078125 "/>
<path style=" stroke:none;fill-rule:nonzero;fill:rgb(25.882354%,25.882354%,25.882354%);fill-opacity:1;" d="M 10.253906 1.449219 L 10.914062 1.449219 C 11.097656 1.449219 11.246094 1.597656 11.246094 1.777344 L 11.246094 14.347656 C 11.246094 14.53125 11.097656 14.679688 10.914062 14.679688 L 10.253906 14.679688 C 10.070312 14.679688 9.921875 14.53125 9.921875 14.347656 L 9.921875 1.777344 C 9.921875 1.597656 10.070312 1.449219 10.253906 1.449219 Z M 10.253906 1.449219 "/>
<path style=" stroke:none;fill-rule:nonzero;fill:rgb(25.882354%,25.882354%,25.882354%);fill-opacity:1;" d="M 5.621094 1.449219 L 5.621094 4.09375 L 3.96875 2.769531 Z M 5.621094 1.449219 "/>
</g>
</svg>
